X: 6604
T: Caught On The Hop
R: reel
M: 4/4
K: Bminor
B>E F>A B>d e2|d>c B>E F>A B>F|A2 F>A B>E F>A|B>d e2 d>e f>e|d>B A>F d2 c>A|
B>E F>A B>d e2|d>c B>E F>A B>F|A2 F>A B>E F>A|B>d e2 d>e f>e|
d>B A>F d2 c>A|B>d e>f d>B e2|d>c B>d e>f d>B|A2 F>A B>d e>f|
d>B e2 a>g f>e|d>B A>F d2 c>A|B>d e>f d>B e2|d>c B>d e>f d>B|
A2 F>A B>d e>f|d>B e2 a>g f>e|d>B A>F d2 c>A|

